X:1
T:[ID 1-7]
T:[ID 1-7]
T:Bezeichnung standardisiert: Operatanz Operatantz
T:Urheber unbekannt Datum in der hier transkribierten schriftlichen Quelle: vermutlich vor 1767
C:Urheber unbekannt
C:Datum in der hier transkribierten schriftlichen Quelle: vermutlich vor 1767
L:1/8
M:2/2
K:F
V:1 treble 
V:1
 f/g/f Ff g/a/g Gg | a/b/a a/g/f e2 c2 | f/g/f Ff g/a/g Gg | e/d/c c/d/^B | c4 :: %5
 c/d/c Cc"^?a" B/"^b"c/"^a"A A,A | d/e/f e/f/d ^c2 A2 | a/b/a"^?" Fa g/a/g Gg | f/e/d d/e/^c d3 d | %9
 c/d/c Cc"^a" B/"^?""^b"c/A A,A | B/c/A G/A/F E2 Cc/4"^?"d/4e/4 | f/c/f g/c/g a/c/a b/c/b | %12
 a/g/f f/g/e g4 :| %13

